style/icons/shield40_un_e_3.svg

<svg width="37.5" height="20" xmlns="http://www.w3.org/2000/svg">
 <g stroke-width=".5">
  <path d="m3.5714 0h30.357c1.9724 0 3.5714 1.3776 3.5714 3.0769v13.846c0 1.6994-1.599 3.077-3.5714 3.077h-30.357c-1.9724 0-3.5714-1.3776-3.5714-3.0769v-13.846c0-1.6993 1.599-3.0769 3.5714-3.0769z" fill="#007f00"/>
  <path d="m3.5714 0.46155h30.357c1.6766 0 3.0357 1.171 3.0357 2.6154v13.846c0 1.4444-1.3592 2.6154-3.0357 2.6154h-30.357c-1.6766 0-3.0357-1.171-3.0357-2.6154v-13.846c-5e-5 -1.4444 1.3592-2.6154 3.0357-2.6154z" fill="#fff"/>
  <path d="m3.5714 1.5384h30.357a1.676 1.676 0 0 1 1.7857 1.5384v13.846a1.676 1.676 0 0 1-1.7857 1.5384h-30.357a1.676 1.676 0 0 1-1.7857-1.5384v-13.846a1.6759 1.6759 0 0 1 1.7857-1.5384z" fill="#007f00"/>
 </g>
</svg>

<svg width="37.5" height="20" xmlns="http://www.w3.org/2000/svg">
 <g stroke-width=".5">
  <path d="M3.571 0h30.357C35.901 0 37.5 1.378 37.5 3.077v13.846c0 1.7-1.6 3.077-3.572 3.077H3.571C1.6 20 0 18.622 0 16.923V3.077C0 1.377 1.599 0 3.571 0z" fill="#007f00"/>
  <path d="M3.571.462h30.357c1.677 0 3.036 1.17 3.036 2.615v13.846c0 1.444-1.36 2.615-3.036 2.615H3.571c-1.676 0-3.035-1.17-3.035-2.615V3.077C.536 1.633 1.895.462 3.57.462z" fill="#fff"/>
  <path d="M3.571 1.538h30.357a1.676 1.676 0 0 1 1.786 1.539v13.846a1.676 1.676 0 0 1-1.786 1.538H3.571a1.676 1.676 0 0 1-1.785-1.538V3.077A1.676 1.676 0 0 1 3.57 1.538z" fill="#007f00"/>
 </g>
</svg>
